public/assets/imgs/twitter-64.svg

<svg fill="none" height="53" viewBox="0 0 64 53" width="64" xmlns="http://www.w3.org/2000/svg"><path d="m2.52536 9.09132c0-3.40564 1.25066-5.89252 1.87599-6.71026 9.06245 11.14044 21.95865 13.87754 27.27395 13.85344-.1443-.6494-.4329-2.1357-.4329-2.8861 0-8.58628 6.5659-13.3484 13.0597-13.3484 5.1951 0 8.6103 2.74183 9.6686 4.11274 1.9722-.43292 6.4072-1.65953 8.3698-3.10259-1.4431 3.92514-4.4495 6.44569-5.7723 7.21533 3.3912-.43292 4.5457-.86584 7.4318-2.02029-1.7317 3.00158-5.0507 5.72421-6.4938 6.71021 0 5.4115-.5051 17.9662-10.823 28.4285-10.3179 10.4622-23.5941 10.823-26.2638 10.823s-11.47239-.0722-20.4194-5.9166c9.35107 1.1544 16.6915-3.1748 19.1928-5.4837-7.7926-.404-11.32809-6.2773-12.12177-9.1634.86584.3367 3.24687.7648 5.84437-.2165-9.45205-2.5975-10.6065-10.6065-10.39004-13.0598 1.50079 1.0968 4.56971 1.6115 5.91657 1.7317-3.3912-2.5253-5.91657-6.7102-5.91657-10.96728z" fill="#000"/></svg>

<svg width="64" height="53" viewBox="0 0 64 53" fill="none" xmlns="http://www.w3.org/2000/svg">
<path d="M2.52536 9.09132C2.52536 5.68568 3.77602 3.1988 4.40135 2.38106C13.4638 13.5215 26.36 16.2586 31.6753 16.2345C31.531 15.5851 31.2424 14.0988 31.2424 13.3484C31.2424 4.76212 37.8083 0 44.3021 0C49.4972 0 52.9124 2.74183 53.9707 4.11274C55.9429 3.67982 60.3779 2.45321 62.3405 1.01015C60.8974 4.93529 57.891 7.45584 56.5682 8.22548C59.9594 7.79256 61.1139 7.35964 64 6.20519C62.2683 9.20677 58.9493 11.9294 57.5062 12.9154C57.5062 18.3269 57.0011 30.8816 46.6832 41.3439C36.3653 51.8061 23.0891 52.1669 20.4194 52.1669C17.7497 52.1669 8.94701 52.0947 0 46.2503C9.35107 47.4047 16.6915 43.0755 19.1928 40.7666C11.4002 40.3626 7.86471 34.4893 7.07103 31.6032C7.93687 31.9399 10.3179 32.368 12.9154 31.3867C3.46335 28.7892 2.3089 20.7802 2.52536 18.3269C4.02615 19.4237 7.09507 19.9384 8.44193 20.0586C5.05073 17.5333 2.52536 13.3484 2.52536 9.09132Z" fill="black"/>
</svg>
